X:80
T:Reel 80
M:4/4
K:Dmaj
L:1/8
E| (3FED EA  (3Bcd AF|G2AF EFGE|FDEC  (3DCD AF|GBAG FDDG| (3FED AD BDAD| (3CB,A, EA, FA,EC|DEDC A,DDd|cAGE FDD|G|FDDF dcdF|Acdc dcAG|F|Dddc dfed|cAGE FDDG|F>D (3DDD dcAd|cAdB cABc|dcde faed|cAGE FDD|
